X:1
M:6/8
L:1/8
Q:3/8=100
K:D
|:A2 A Ace|g2 g g2 f|e2 e ede|fa/g/f/e/ dfd|A2 A Ace|g2 g g2 f|ede ABc|dA/G/F/E/ D3:|

